X:1
T:The Blue Eyed Rascal
M:4/4
L:1/8
R:set dance
Z:Harry Seaman
Z:To David James
K:G
(3DEF|GFGA Bgfg|(3efg (3cde d2 BA|GFGA BdBG|AB (3cde dB (3cBA|!
GFGA Bgfg|(3efg (3cde d2 (3deg|(3gdB (3GBd (3ceg (3c'ge|(3faf (3def g2:||!
|:B2|(3efe (3^def (3efe BB|(3efe (3^def e2 BB|(3ded BB (3ded AA|(3ded (3^cde
(3ded (3=cBA|!
GFGA Bgfg|(3efg (3cde d2 BA|GFGA BdBG|AB (3cde dB (3cBA|!
GFGA Bgfg|(3efg (3cde d2 (3def|(3gdB (3GBd (3ceg (3c'ge|(3faf (3def g2:||
